images/number-info.svg

<?xml version="1.0" encoding="UTF-8" standalone="no"?>
<svg width="18px" height="18px" viewBox="0 0 18 18" version="1.1" xmlns="http://www.w3.org/2000/svg" xmlns:xlink="http://www.w3.org/1999/xlink">
    <!-- Generator: Sketch 48 (47235) - http://www.bohemiancoding.com/sketch -->
    <title>number-info</title>
    <desc>Created with Sketch.</desc>
    <defs></defs>
    <g id="number_verification" stroke="none" stroke-width="1" fill="none" fill-rule="evenodd" transform="translate(-59.000000, -401.000000)">
        <g id="Group-5" transform="translate(59.000000, 401.000000)" fill="#EFEFEF">
            <path d="M11.4285851,14.2142836 L11.4285851,12.4285672 C11.4285851,12.2276741 11.2723349,12.0714239 11.0714418,12.0714239 L10.0000119,12.0714239 L10.0000119,6.35713136 C10.0000119,6.15623827 9.84376173,5.99998808 9.64286864,5.99998808 L6.07143581,5.99998808 C5.87054271,5.99998808 5.71429253,6.15623827 5.71429253,6.35713136 L5.71429253,8.14284778 C5.71429253,8.34374087 5.87054271,8.49999106 6.07143581,8.49999106 L7.14286566,8.49999106 L7.14286566,12.0714239 L6.07143581,12.0714239 C5.87054271,12.0714239 5.71429253,12.2276741 5.71429253,12.4285672 L5.71429253,14.2142836 C5.71429253,14.4151767 5.87054271,14.5714269 6.07143581,14.5714269 L11.0714418,14.5714269 C11.2723349,14.5714269 11.4285851,14.4151767 11.4285851,14.2142836 Z M10.0000119,4.21427166 L10.0000119,2.42855525 C10.0000119,2.22766215 9.84376173,2.07141197 9.64286864,2.07141197 L7.50000894,2.07141197 C7.29911584,2.07141197 7.14286566,2.22766215 7.14286566,2.42855525 L7.14286566,4.21427166 C7.14286566,4.41516476 7.29911584,4.57141495 7.50000894,4.57141495 L9.64286864,4.57141495 C9.84376173,4.57141495 10.0000119,4.41516476 10.0000119,4.21427166 Z M17.1428776,8.85713434 C17.1428776,13.5892828 13.3035873,17.4285731 8.57143879,17.4285731 C3.83929029,17.4285731 0,13.5892828 0,8.85713434 C0,4.12498584 3.83929029,0.285695553 8.57143879,0.285695553 C13.3035873,0.285695553 17.1428776,4.12498584 17.1428776,8.85713434 Z" id="number-info"></path>
        </g>
    </g>
</svg>

<svg width="18" height="18" xmlns="http://www.w3.org/2000/svg"><path d="M11.429 14.214V12.43a.354.354 0 0 0-.358-.358H10V6.357c0-.2-.156-.357-.357-.357H6.07c-.2 0-.357.156-.357.357v1.786c0 .2.157.357.357.357h1.072v3.571H6.07c-.2 0-.357.157-.357.358v1.785c0 .201.157.357.357.357h5a.353.353 0 0 0 .358-.357zM10 4.214V2.43a.353.353 0 0 0-.357-.358H7.5c-.2 0-.357.157-.357.358v1.785c0 .201.156.357.357.357h2.143c.2 0 .357-.156.357-.357zm7.143 4.643A8.574 8.574 0 0 1 8.57 17.43 8.574 8.574 0 0 1 0 8.857 8.574 8.574 0 0 1 8.571.286a8.574 8.574 0 0 1 8.572 8.571z" fill="#EFEFEF" fill-rule="evenodd"/></svg>
